assets/img/svg/gallery.svg

<svg width="23" height="18" viewBox="0 0 23 18" fill="none" xmlns="http://www.w3.org/2000/svg">
<g clip-path="url(#clip0_885_2592)">
<path d="M9.2 0H20.7C21.9686 0 23 1.00898 23 2.25V10.125C23 11.366 21.9686 12.375 20.7 12.375H9.2C7.93141 12.375 6.9 11.366 6.9 10.125V2.25C6.9 1.00898 7.93141 0 9.2 0ZM17.1062 3.75117C16.9445 3.51562 16.675 3.375 16.3875 3.375C16.1 3.375 15.8305 3.51562 15.6687 3.75117L13.6562 6.7043L13.0345 5.94141C12.8692 5.74102 12.6213 5.625 12.3625 5.625C12.1038 5.625 11.8522 5.74102 11.6905 5.94141L9.39047 8.75391C9.18203 9.00703 9.1425 9.35508 9.28625 9.64687C9.43 9.93867 9.73187 10.125 10.0625 10.125H12.9375H14.6625H19.8375C20.1573 10.125 20.4484 9.95273 20.5994 9.67852C20.7503 9.4043 20.7323 9.07031 20.5562 8.81367L17.1062 3.75117ZM12.075 3.375C12.075 3.07663 11.9538 2.79048 11.7382 2.5795C11.5225 2.36853 11.23 2.25 10.925 2.25C10.62 2.25 10.3275 2.36853 10.1118 2.5795C9.89616 2.79048 9.775 3.07663 9.775 3.375C9.775 3.67337 9.89616 3.95952 10.1118 4.1705C10.3275 4.38147 10.62 4.5 10.925 4.5C11.23 4.5 11.5225 4.38147 11.7382 4.1705C11.9538 3.95952 12.075 3.67337 12.075 3.375ZM2.3 4.5H5.75V13.5V14.625C5.75 15.2473 6.26391 15.75 6.9 15.75H11.5C12.1361 15.75 12.65 15.2473 12.65 14.625V13.5H18.4V15.75C18.4 16.991 17.3686 18 16.1 18H2.3C1.03141 18 0 16.991 0 15.75V6.75C0 5.50898 1.03141 4.5 2.3 4.5ZM2.5875 6.75C2.27125 6.75 2.0125 7.00313 2.0125 7.3125V7.875C2.0125 8.18437 2.27125 8.4375 2.5875 8.4375H3.1625C3.47875 8.4375 3.7375 8.18437 3.7375 7.875V7.3125C3.7375 7.00313 3.47875 6.75 3.1625 6.75H2.5875ZM2.5875 10.4062C2.27125 10.4062 2.0125 10.6594 2.0125 10.9688V11.5312C2.0125 11.8406 2.27125 12.0938 2.5875 12.0938H3.1625C3.47875 12.0938 3.7375 11.8406 3.7375 11.5312V10.9688C3.7375 10.6594 3.47875 10.4062 3.1625 10.4062H2.5875ZM2.5875 14.0625C2.27125 14.0625 2.0125 14.3156 2.0125 14.625V15.1875C2.0125 15.4969 2.27125 15.75 2.5875 15.75H3.1625C3.47875 15.75 3.7375 15.4969 3.7375 15.1875V14.625C3.7375 14.3156 3.47875 14.0625 3.1625 14.0625H2.5875ZM14.6625 14.625V15.1875C14.6625 15.4969 14.9212 15.75 15.2375 15.75H15.8125C16.1287 15.75 16.3875 15.4969 16.3875 15.1875V14.625C16.3875 14.3156 16.1287 14.0625 15.8125 14.0625H15.2375C14.9212 14.0625 14.6625 14.3156 14.6625 14.625Z" fill="#1C62AE"/>
</g>
<defs>
<clipPath id="clip0_885_2592">
<rect width="23" height="18" fill="white"/>
</clipPath>
</defs>
</svg>

<svg width="23" height="18" fill="none" xmlns="http://www.w3.org/2000/svg"><g clip-path="url(#clip0_885_2592)"><path d="M9.2 0h11.5C21.969 0 23 1.009 23 2.25v7.875c0 1.241-1.031 2.25-2.3 2.25H9.2c-1.269 0-2.3-1.009-2.3-2.25V2.25C6.9 1.009 7.931 0 9.2 0zm7.906 3.751a.871.871 0 00-.719-.376.872.872 0 00-.718.376l-2.013 2.953-.622-.763a.873.873 0 00-1.344 0l-2.3 2.813a.827.827 0 00-.104.893.865.865 0 00.777.478H19.837c.32 0 .611-.172.762-.446a.825.825 0 00-.043-.865l-3.45-5.063zm-5.031-.376c0-.298-.121-.585-.337-.796a1.163 1.163 0 00-.813-.329c-.305 0-.598.119-.813.33a1.113 1.113 0 00-.337.795c0 .298.121.585.337.795a1.163 1.163 0 001.626 0c.216-.21.337-.497.337-.795zM2.3 4.5h3.45v10.125c0 .622.514 1.125 1.15 1.125h4.6c.636 0 1.15-.503 1.15-1.125V13.5h5.75v2.25c0 1.241-1.031 2.25-2.3 2.25H2.3C1.031 18 0 16.991 0 15.75v-9C0 5.509 1.031 4.5 2.3 4.5zm.288 2.25a.57.57 0 00-.575.563v.562c0 .31.258.563.575.563h.575a.57.57 0 00.575-.563v-.563a.57.57 0 00-.575-.562h-.575zm0 3.656a.57.57 0 00-.575.563v.562c0 .31.258.563.575.563h.575a.57.57 0 00.575-.563v-.562a.57.57 0 00-.575-.563h-.575zm0 3.656a.57.57 0 00-.575.563v.563c0 .309.258.562.575.562h.575a.57.57 0 00.575-.563v-.562a.57.57 0 00-.575-.563h-.575zm12.074.563v.563c0 .309.26.562.575.562h.575a.57.57 0 00.575-.563v-.562a.57.57 0 00-.575-.563h-.574a.57.57 0 00-.575.563z" fill="#1C62AE"/></g><defs><clipPath id="clip0_885_2592"><path fill="#fff" d="M0 0h23v18H0z"/></clipPath></defs></svg>
